src/modules/landing/assets/passwords.svg

<svg width="26.67" height="21.33" viewBox="0 0 28 22" fill="#63666B" xmlns="http://www.w3.org/2000/svg">
<path d="M3.33332 0.333252C2.62608 0.333252 1.9478 0.614203 1.4477 1.1143C0.947608 1.6144 0.666656 2.29267 0.666656 2.99992V17.6666C0.666656 18.3738 0.947608 19.0521 1.4477 19.5522C1.9478 20.0523 2.62608 20.3332 3.33332 20.3332V21.6666H5.99999V20.3332H20.6667V21.6666H23.3333V20.3332C24.0406 20.3332 24.7188 20.0523 25.2189 19.5522C25.719 19.0521 26 18.3738 26 17.6666V16.3333H27.3333V13.6666H26V6.99992H27.3333V4.33325H26V2.99992C26 2.29267 25.719 1.6144 25.2189 1.1143C24.7188 0.614203 24.0406 0.333252 23.3333 0.333252H3.33332ZM3.33332 2.99992H23.3333V17.6666H3.33332V2.99992ZM16 4.99992C14.5855 4.99992 13.2289 5.56182 12.2288 6.56201C11.2286 7.56221 10.6667 8.91876 10.6667 10.3333C10.6667 11.7477 11.2286 13.1043 12.2288 14.1045C13.2289 15.1047 14.5855 15.6666 16 15.6666C17.4145 15.6666 18.771 15.1047 19.7712 14.1045C20.7714 13.1043 21.3333 11.7477 21.3333 10.3333C21.3333 8.91876 20.7714 7.56221 19.7712 6.56201C18.771 5.56182 17.4145 4.99992 16 4.99992ZM4.66666 6.99992V13.6666H7.33332V6.99992H4.66666ZM16 7.66658C16.7072 7.66658 17.3855 7.94754 17.8856 8.44763C18.3857 8.94773 18.6667 9.62601 18.6667 10.3333C18.6667 11.0405 18.3857 11.7188 17.8856 12.2189C17.3855 12.719 16.7072 12.9999 16 12.9999C15.2927 12.9999 14.6145 12.719 14.1144 12.2189C13.6143 11.7188 13.3333 11.0405 13.3333 10.3333C13.3333 9.62601 13.6143 8.94773 14.1144 8.44763C14.6145 7.94754 15.2927 7.66658 16 7.66658Z"/>
</svg>

<svg width="26.67" height="21.33" viewBox="0 0 28 22" fill="#63666B" xmlns="http://www.w3.org/2000/svg"><path d="M3.333.333A2.667 2.667 0 00.667 3v14.667a2.667 2.667 0 002.666 2.666v1.334H6v-1.334h14.667v1.334h2.666v-1.334A2.666 2.666 0 0026 17.667v-1.334h1.333v-2.666H26V7h1.333V4.333H26V3A2.667 2.667 0 0023.333.333h-20zm0 2.667h20v14.667h-20V3zM16 5a5.333 5.333 0 100 10.666A5.333 5.333 0 0016 5zM4.667 7v6.667h2.666V7H4.667zM16 7.667A2.667 2.667 0 1116 13a2.667 2.667 0 010-5.333z"/></svg>
